X: 31254
T: Paddy Fahy's
R: jig
M: 6/8
K: Cmajor
c/4d/4c/Bc dcB|cGE CEG|FEF DEF|GAB ced|
c/4d/4c/Bc dGB|cFD GEC|FG/4F/4E/F DGF|ECC C3|
c/4d/4c/Bc dcB|cGE CEG|FEF DEF|GAB ced|
c/4d/4c/Bc dGB|cFD GEC|FG/4F/4E/F DGF|ECC C3|
c3 g^fg|ea^f gec|A2 f fef|Acf afd|
cd/4c/4B/A g^fg|ea^f g2 a|g/4a/4g/ec fdB|cGE CEG|
c3 g^fg|ea^f gec|A2 f fef|Acf afd|
cd/4c/4B/A g^fg|ea^f g2 a|g/4a/4g/ec fdB|cGE CEG||

